X: 10735
T: Dr. Angus & Emily MacDonald's Trip To San Francisco
R: jig
M: 6/8
K: Amajor
AFEA2c|efa cBA|fec e<ac|BcB AFE|
AFEA2c|efac2A|fece2c|1 BAF AcB:|2 BAF Ace||
|:aba c'ba|faf ecA|fece2c|BcB Ace|
aba c'ba|faf ecA|fec e<ac|BAF Ace|
aba c'ba|faf ecA|fec e<ac|BcB AFE|
AFEA2c|efa cBA|fec e<ac|BAFA2A||

